static/img/in-field/checkbox-progression-indeterminate-focus.svg

<svg fill="none" height="56" viewBox="0 0 56 56" width="56" xmlns="http://www.w3.org/2000/svg" xmlns:xlink="http://www.w3.org/1999/xlink"><clipPath id="a"><path d="m10 10h36v36h-36z"/></clipPath><g clip-path="url(#a)"><path clip-rule="evenodd" d="m18 10c-4.4183 0-8 3.5817-8 8v20c0 4.4183 3.5817 8 8 8h20c4.4183 0 8-3.5817 8-8v-20c0-4.4183-3.5817-8-8-8zm19.3333 3h-18.6666c-3.1466 0-5.6667 2.5529-5.6667 5.6667v18.6666c0 3.1138 2.5201 5.6667 5.6667 5.6667h18.6666c3.1466 0 5.6667-2.5529 5.6667-5.6667v-18.6666c0-3.1138-2.5201-5.6667-5.6667-5.6667zm-18.6666 3h18.6666c1.48 0 2.6667 1.2 2.6667 2.6667v18.6666c0 1.4667-1.1867 2.6667-2.6667 2.6667h-18.6666c-1.48 0-2.6667-1.2-2.6667-2.6667v-18.6666c0-1.4667 1.1867-2.6667 2.6667-2.6667z" fill="#019aeb" fill-rule="evenodd"/><rect fill="#fff" height="24" rx="4" width="24" x="16" y="16"/><g fill="#90939f"><path clip-rule="evenodd" d="m18.6667 16h18.6666c1.4667 0 2.6667 1.2 2.6667 2.6667v18.6666c0 1.4667-1.2 2.6667-2.6667 2.6667h-18.6666c-1.4667 0-2.6667-1.2-2.6667-2.6667v-18.6666c0-1.4667 1.2-2.6667 2.6667-2.6667zm18.6666 21.3333v-18.6666h-18.6666v18.6666z" fill-rule="evenodd"/><path d="m21.3333 26.6667h13.3334v2.6666h-13.3334z"/></g></g></svg>

<svg width="56" height="56" viewBox="0 0 56 56" fill="none" xmlns="http://www.w3.org/2000/svg"><g clip-path="url(#clip0_7256_85400)"><path fill-rule="evenodd" clip-rule="evenodd" d="M18 10C13.5817 10 10 13.5817 10 18V38C10 42.4183 13.5817 46 18 46H38C42.4183 46 46 42.4183 46 38V18C46 13.5817 42.4183 10 38 10H18ZM37.3333 13H18.6667C15.5201 13 13 15.5529 13 18.6667V37.3333C13 40.4471 15.5201 43 18.6667 43H37.3333C40.4799 43 43 40.4471 43 37.3333V18.6667C43 15.5529 40.4799 13 37.3333 13ZM18.6667 16H37.3333C38.8133 16 40 17.2 40 18.6667V37.3333C40 38.8 38.8133 40 37.3333 40H18.6667C17.1867 40 16 38.8 16 37.3333V18.6667C16 17.2 17.1867 16 18.6667 16Z" fill="#019AEB"/><rect x="16" y="16" width="24" height="24" rx="4" fill="#fff"/><path fill-rule="evenodd" clip-rule="evenodd" d="M18.6667 16H37.3333C38.8 16 40 17.2 40 18.6667V37.3333C40 38.8 38.8 40 37.3333 40H18.6667C17.2 40 16 38.8 16 37.3333V18.6667C16 17.2 17.2 16 18.6667 16ZM37.3333 37.3333V18.6667H18.6667V37.3333H37.3333Z" fill="#90939F"/><path d="M21.3333 26.6667H34.6667V29.3333H21.3333V26.6667Z" fill="#90939F"/></g><defs><clipPath id="clip0_7256_85400"><rect width="36" height="36" fill="#fff" transform="translate(10 10)"/></clipPath></defs></svg>
